Yaru++/apps/scalable/Alacritty.svg

<svg height="256" width="256" xmlns="http://www.w3.org/2000/svg" xmlns:xlink="http://www.w3.org/1999/xlink"><filter id="a" color-interpolation-filters="sRGB" height="1.096001" width="1.095999" x="-.047999" y="-.048001"><feGaussianBlur stdDeviation="4.4800539"/></filter><filter id="b" color-interpolation-filters="sRGB" height="1.024" width="1.024" x="-.012" y="-.012"><feGaussianBlur stdDeviation="1.1200135"/></filter><linearGradient id="c" gradientUnits="userSpaceOnUse" x1="137.06875" x2="130.715809" y1="38.988759" y2="197.812284"><stop offset="0" stop-color="#ed2f02"/><stop offset="1" stop-color="#faa300"/></linearGradient><filter id="d" color-interpolation-filters="sRGB" height="1.077192" width="1.014209" x="-.007104" y="-.038596"><feGaussianBlur stdDeviation=".59203841"/></filter><path d="m200.83049 16.247862c35.29673 0 39.09461 3.62542 38.92162 38.99353v73.006468 73.00648c.17299 35.36812-3.62489 38.99353-38.92162 38.99353h-146.15675c-35.29671 0-38.92161-3.625-38.92161-38.99353v-73.00648-73.006468c0-35.36853 3.6249-38.99353 38.92161-38.99353z" filter="url(#b)" opacity=".1"/><path d="m200.83049 16.247862c35.29673 0 39.09461 3.62542 38.92162 38.99353v73.006468 73.00648c.17299 35.36812-3.62489 38.99353-38.92162 38.99353h-146.15675c-35.29671 0-38.92161-3.625-38.92161-38.99353v-73.00648-73.006468c0-35.36853 3.6249-38.99353 38.92161-38.99353z" filter="url(#a)" opacity=".2"/><path d="m200.83049 15.247567c35.29673 0 39.09461 3.625419 38.92162 38.993529v73.006464 73.00648c.17299 35.36812-3.62489 38.99353-38.92162 38.99353h-146.15675c-35.29671 0-38.92161-3.625-38.92161-38.99353v-73.00648-73.006464c0-35.36853 3.6249-38.993529 38.92161-38.993529z" fill="#a6a6a6"/><path d="m239.75166 175.25373-63.99414 63.99414h25.07227c35.29673 0 39.09486-3.62602 38.92187-38.99414z" fill="#fff" opacity=".1"/><path d="m54.679402 15.247571c-35.296728 0-39.09487 3.626029-38.92188 38.994139v2c-.17299-35.36811 3.625152-38.99414 38.92188-38.99414h146.156238c35.29673 0 38.92188 3.62561 38.92188 38.99414v-2c0-35.36853-3.62515-38.994139-38.92188-38.994139z" fill="#fff" opacity=".3"/><path d="m54.684802 239.24757c-35.296731 0-39.094875-3.62603-38.921885-38.99414v-2c-.17299 35.36811 3.625154 38.99414 38.921885 38.99414h146.156238c35.29673 0 38.92188-3.62561 38.92188-38.99414v2c0 35.36853-3.62515 38.99414-38.92188 38.99414z" opacity=".2"/><path d="m192.99939 27.249968c31.51418 0 34.90506 3.236902 34.75061 34.814816v65.182766 65.1828c.15445 31.57792-3.23643 34.81482-34.75061 34.81482h-130.493968c-31.514162 0-34.750603-3.23653-34.750603-34.81482v-65.1828-65.182766c0-31.578288 3.236441-34.814816 34.750603-34.814816z" fill="#14232b"/><g transform="translate(-4.019807 -1.741192)"><path d="m52.36286 197.81229 63.52942-158.82353h31.76469l63.52942 158.82353h-31.76471l-46.58823-127.058824-48.705884 127.058824z" fill="url(#c)"/><path d="m132.06504 218.98876-21.17648-63.52942 21.17648-42.35293 21.17647 42.35293z" fill="#0ea0fc"/><path d="m132.06504 189.15412-15.77677-44.41293 15.77677-31.63478 15.95477 31.63478z" fill="#fff"/></g><path d="m62.505859 29.25c-31.514162 0-34.751953 3.236165-34.751953 34.814453v2c0-31.578288 3.237791-34.814453 34.751953-34.814453h130.494141c31.51418 0 34.90445 3.236539 34.75 34.814453v-2c.15445-31.577914-3.23582-34.814453-34.75-34.814453z" filter="url(#d)" transform="matrix(1.0009874 0 0 1.0009874 -.026003 -.066639)"/><path d="m62.505859 29.25c-31.514162 0-34.751953 3.236165-34.751953 34.814453v2c0-31.578288 3.237791-34.814453 34.751953-34.814453h130.494141c31.51418 0 34.90445 3.236539 34.75 34.814453v-2c.15445-31.577914-3.23582-34.814453-34.75-34.814453z" fill="#fff" filter="url(#d)" transform="matrix(-1.0009874 0 0 -1.0009874 255.73501 257.94159)"/></svg>

<?xml version="1.0" encoding="UTF-8" standalone="no"?>
<svg
   xmlns:dc="http://purl.org/dc/elements/1.1/"
   xmlns:cc="http://creativecommons.org/ns#"
   xmlns:rdf="http://www.w3.org/1999/02/22-rdf-syntax-ns#"
   xmlns:svg="http://www.w3.org/2000/svg"
   xmlns="http://www.w3.org/2000/svg"
   xmlns:xlink="http://www.w3.org/1999/xlink"
   xmlns:sodipodi="http://sodipodi.sourceforge.net/DTD/sodipodi-0.dtd"
   xmlns:inkscape="http://www.inkscape.org/namespaces/inkscape"
   height="256"
   width="256"
   version="1.1"
   id="svg59"
   sodipodi:docname="extensions.svg"
   inkscape:version="0.92.5 (2060ec1f9f, 2020-04-08)">
  <metadata
     id="metadata65">
    <rdf:RDF>
      <cc:Work
         rdf:about="">
        <dc:format>image/svg+xml</dc:format>
        <dc:type
           rdf:resource="http://purl.org/dc/dcmitype/StillImage" />
        <dc:title></dc:title>
      </cc:Work>
    </rdf:RDF>
  </metadata>
  <defs
     id="defs63">
    <linearGradient
       id="linearGradient4571"
       inkscape:collect="always">
      <stop
         style="stop-color:#ed2f02;stop-opacity:1"
         offset="0"
         id="stop4567" />
      <stop
         style="stop-color:#faa300;stop-opacity:1"
         offset="1"
         id="stop4569" />
    </linearGradient>
    <filter
       inkscape:collect="always"
       style="color-interpolation-filters:sRGB"
       id="filter58449"
       x="-0.047999427"
       width="1.0959988"
       y="-0.048000574"
       height="1.0960011">
      <feGaussianBlur
         inkscape:collect="always"
         stdDeviation="4.4800539"
         id="feGaussianBlur58451" />
    </filter>
    <filter
       inkscape:collect="always"
       style="color-interpolation-filters:sRGB"
       id="filter58492"
       x="-0.011999856"
       width="1.0239997"
       y="-0.012000144"
       height="1.0240003">
      <feGaussianBlur
         inkscape:collect="always"
         stdDeviation="1.1200135"
         id="feGaussianBlur58494" />
    </filter>
    <linearGradient
       inkscape:collect="always"
       xlink:href="#linearGradient4571"
       id="linearGradient4565"
       x1="-110"
       y1="46"
       x2="-113"
       y2="121"
       gradientUnits="userSpaceOnUse"
       gradientTransform="matrix(2.117647,0,0,2.117647,370.00992,-58.423003)" />
    <linearGradient
       inkscape:collect="always"
       xlink:href="#linearGradient4571"
       id="linearGradient4582"
       gradientUnits="userSpaceOnUse"
       gradientTransform="matrix(2.117647,0,0,2.117647,370.00992,-58.423003)"
       x1="-110"
       y1="46"
       x2="-113"
       y2="121" />
    <filter
       inkscape:collect="always"
       style="color-interpolation-filters:sRGB"
       id="filter4599"
       x="-0.0071044286"
       width="1.0142089"
       y="-0.038596042"
       height="1.0771921">
      <feGaussianBlur
         inkscape:collect="always"
         stdDeviation="0.59203841"
         id="feGaussianBlur4601" />
    </filter>
  </defs>
  <sodipodi:namedview
     pagecolor="#ffffff"
     bordercolor="#666666"
     borderopacity="1"
     objecttolerance="10"
     gridtolerance="10"
     guidetolerance="10"
     inkscape:pageopacity="0"
     inkscape:pageshadow="2"
     inkscape:window-width="1920"
     inkscape:window-height="1016"
     id="namedview61"
     showgrid="true"
     inkscape:zoom="2.5571729"
     inkscape:cx="-19.906203"
     inkscape:cy="127.75213"
     inkscape:window-x="0"
     inkscape:window-y="27"
     inkscape:window-maximized="1"
     inkscape:current-layer="svg59">
    <inkscape:grid
       type="xygrid"
       id="grid4553" />
  </sodipodi:namedview>
  <linearGradient
     id="a"
     gradientUnits="userSpaceOnUse"
     x1="88"
     x2="488"
     y1="88"
     y2="488">
    <stop
       offset="0"
       stop-opacity=".588235"
       id="stop2" />
    <stop
       offset="1"
       stop-opacity=".205556"
       id="stop4" />
  </linearGradient>
  <filter
     id="b"
     color-interpolation-filters="sRGB"
     height="1.088"
     width="1.106"
     x="-.05"
     y="-.04">
    <feGaussianBlur
       stdDeviation="8.48"
       id="feGaussianBlur7" />
  </filter>
  <filter
     id="c"
     color-interpolation-filters="sRGB"
     height="1.022"
     width="1.026"
     x="-.01"
     y="-.01">
    <feGaussianBlur
       stdDeviation="2.12"
       id="feGaussianBlur10" />
  </filter>
  <path
     style="color:#000000;display:inline;overflow:visible;visibility:visible;opacity:0.1;fill:#000000;fill-opacity:1;fill-rule:nonzero;stroke:none;stroke-width:1;marker:none;filter:url(#filter58492);enable-background:accumulate"
     d="m 200.83049,16.247862 c 35.29673,0 39.09461,3.62542 38.92162,38.99353 v 73.006468 73.00648 c 0.17299,35.36812 -3.62489,38.99353 -38.92162,38.99353 H 54.67374 c -35.29671,0 -38.92161,-3.625 -38.92161,-38.99353 V 128.24786 55.241392 c 0,-35.36853 3.6249,-38.99353 38.92161,-38.99353 z"
     id="rect4158-7"
     inkscape:connector-curvature="0"
     sodipodi:nodetypes="scccssscsss" />
  <path
     style="color:#000000;display:inline;overflow:visible;visibility:visible;opacity:0.2;fill:#000000;fill-opacity:1;fill-rule:nonzero;stroke:none;stroke-width:1;marker:none;filter:url(#filter58449);enable-background:accumulate"
     d="m 200.83049,16.247862 c 35.29673,0 39.09461,3.62542 38.92162,38.99353 v 73.006468 73.00648 c 0.17299,35.36812 -3.62489,38.99353 -38.92162,38.99353 H 54.67374 c -35.29671,0 -38.92161,-3.625 -38.92161,-38.99353 V 128.24786 55.241392 c 0,-35.36853 3.6249,-38.99353 38.92161,-38.99353 z"
     id="rect4158-1"
     inkscape:connector-curvature="0"
     sodipodi:nodetypes="scccssscsss" />
  <path
     style="color:#000000;display:inline;overflow:visible;visibility:visible;fill:#a6a6a6;fill-opacity:1;fill-rule:nonzero;stroke:none;stroke-width:1;marker:none;enable-background:accumulate"
     d="m 200.83049,15.247567 c 35.29673,0 39.09461,3.625419 38.92162,38.993529 v 73.006464 73.00648 c 0.17299,35.36812 -3.62489,38.99353 -38.92162,38.99353 H 54.67374 c -35.29671,0 -38.92161,-3.625 -38.92161,-38.99353 V 127.24756 54.241096 c 0,-35.36853 3.6249,-38.993529 38.92161,-38.993529 z"
     id="rect4158"
     inkscape:connector-curvature="0"
     sodipodi:nodetypes="scccssscsss" />
  <path
     style="display:inline;opacity:0.1;vector-effect:none;fill:#ffffff;fill-opacity:1;stroke:none;stroke-width:2;stroke-linecap:round;stroke-linejoin:round;stroke-miterlimit:4;stroke-dasharray:none;stroke-dashoffset:0;stroke-opacity:1;enable-background:new"
     d="m 239.75166,175.25373 -63.99414,63.99414 h 25.07227 c 35.29673,0 39.09486,-3.62602 38.92187,-38.99414 z"
     id="rect3832"
     inkscape:connector-curvature="0" />
  <path
     style="color:#000000;display:inline;overflow:visible;visibility:visible;opacity:0.3;fill:#ffffff;fill-opacity:1;fill-rule:nonzero;stroke:none;stroke-width:1;marker:none;enable-background:accumulate"
     d="m 54.679402,15.247571 c -35.296728,0 -39.09487,3.626029 -38.92188,38.994139 v 2 C 15.584532,20.8736 19.382674,17.24757 54.679402,17.24757 H 200.83564 c 35.29673,0 38.92188,3.62561 38.92188,38.99414 v -2 c 0,-35.36853 -3.62515,-38.994139 -38.92188,-38.994139 z"
     id="path931"
     inkscape:connector-curvature="0"
     sodipodi:nodetypes="sccsscsss" />
  <path
     style="color:#000000;display:inline;overflow:visible;visibility:visible;opacity:0.2;fill:#000000;fill-opacity:1;fill-rule:nonzero;stroke:none;stroke-width:1;marker:none;enable-background:accumulate"
     d="m 54.684802,239.24757 c -35.296731,0 -39.094875,-3.62603 -38.921885,-38.99414 v -2 c -0.17299,35.36811 3.625154,38.99414 38.921885,38.99414 H 200.84104 c 35.29673,0 38.92188,-3.62561 38.92188,-38.99414 v 2 c 0,35.36853 -3.62515,38.99414 -38.92188,38.99414 z"
     id="path931-8"
     inkscape:connector-curvature="0"
     sodipodi:nodetypes="sccsscsss" />
  <path
     sodipodi:nodetypes="scccssscsss"
     inkscape:connector-curvature="0"
     id="path4584"
     d="m 192.99939,27.249968 c 31.51418,0 34.90506,3.236902 34.75061,34.814816 v 65.182766 65.1828 c 0.15445,31.57792 -3.23643,34.81482 -34.75061,34.81482 H 62.505422 c -31.514162,0 -34.750603,-3.23653 -34.750603,-34.81482 v -65.1828 -65.182766 c 0,-31.578288 3.236441,-34.814816 34.750603,-34.814816 z"
     style="color:#000000;display:inline;overflow:visible;visibility:visible;fill:#14232b;fill-opacity:1;fill-rule:nonzero;stroke:none;stroke-width:11.99971294;stroke-miterlimit:4;stroke-dasharray:none;stroke-opacity:1;marker:none;enable-background:accumulate" />
  <g
     id="g4580"
     transform="translate(-4.0198071,-1.7411915)">
    <path
       sodipodi:nodetypes="cccccccccc"
       inkscape:connector-curvature="0"
       id="path4555"
       d="M 52.36286,197.81229 115.89228,38.98876 h 31.76469 l 63.52942,158.82353 H 179.42168 L 132.83345,70.753466 v 0 L 84.127566,197.81229 H 52.36286 v 0"
       style="fill:url(#linearGradient4582);fill-opacity:1;stroke:none;stroke-width:2.11764717px;stroke-linecap:butt;stroke-linejoin:miter;stroke-opacity:1" />
    <path
       inkscape:connector-curvature="0"
       id="path4557"
       d="m 132.06504,218.98876 -21.17648,-63.52942 21.17648,-42.35293 21.17647,42.35293 z"
       style="fill:#0ea0fc;fill-opacity:1;stroke:none;stroke-width:2.11764717px;stroke-linecap:butt;stroke-linejoin:miter;stroke-opacity:1" />
    <path
       style="fill:#ffffff;fill-opacity:1;stroke:none;stroke-width:1.40551186px;stroke-linecap:butt;stroke-linejoin:miter;stroke-opacity:1"
       d="m 132.06504,189.15412 -15.77677,-44.41293 15.77677,-31.63478 15.95477,31.63478 z"
       id="path4573"
       inkscape:connector-curvature="0"
       sodipodi:nodetypes="ccccc" />
  </g>
  <path
     style="color:#000000;display:inline;overflow:visible;visibility:visible;fill:#000000;fill-opacity:1;fill-rule:nonzero;stroke:none;stroke-width:11.99971294;stroke-miterlimit:4;stroke-dasharray:none;stroke-opacity:1;marker:none;filter:url(#filter4599);enable-background:accumulate"
     d="m 62.505859,29.25 c -31.514162,0 -34.751953,3.236165 -34.751953,34.814453 v 2 C 27.753906,34.486165 30.991697,31.25 62.505859,31.25 H 193 c 31.51418,0 34.90445,3.236539 34.75,34.814453 v -2 C 227.90445,32.486539 224.51418,29.25 193,29.25 Z"
     id="path4590"
     inkscape:connector-curvature="0"
     transform="matrix(1.0009874,0,0,1.0009874,-0.02600281,-0.0666391)" />
  <path
     transform="matrix(-1.0009874,0,0,-1.0009874,255.73501,257.94159)"
     inkscape:connector-curvature="0"
     id="path4603"
     d="m 62.505859,29.25 c -31.514162,0 -34.751953,3.236165 -34.751953,34.814453 v 2 C 27.753906,34.486165 30.991697,31.25 62.505859,31.25 H 193 c 31.51418,0 34.90445,3.236539 34.75,34.814453 v -2 C 227.90445,32.486539 224.51418,29.25 193,29.25 Z"
     style="color:#000000;display:inline;overflow:visible;visibility:visible;fill:#ffffff;fill-opacity:1;fill-rule:nonzero;stroke:none;stroke-width:11.99971294;stroke-miterlimit:4;stroke-dasharray:none;stroke-opacity:1;marker:none;filter:url(#filter4599);enable-background:accumulate" />
</svg>
